Yaru++/apps/symbolic/texstudio-symbolic.svg

<svg height="16" width="16" xmlns="http://www.w3.org/2000/svg">
  <path d="m9.7762166 4.0300161v.2697777h.1798518c.4788786 0 .6439096.061998.8093426.3057519l1.600695 2.4280279-1.438828 2.1042792c-.121897.1741379-.379581.5755393-1.2589792.5755393v.2697779l.9712102-.03595c.322156 0 .801647.0098 1.115096.03595v-.2697779c-.400518-.00875-.557547-.2569408-.557547-.4136649 0-.078323.02899-.1020631.08993-.1978389l1.24099-1.8345113 1.366885 2.0863018c.01741.034789.05396.063844.05396.089887 0 .1044827-.201138.2610805-.575533.2697874v.2697778c.304743-.02614.946097-.03596 1.276961-.03596l1.133078.03596v-.2697778h-.16187c-.45276 0-.644482-.053835-.827327-.3237487l-1.834507-2.7697346 1.187035-1.7445855c.191551-.2786205.502043-.5668226 1.27696-.5755295v-.2697776l-.971209.035955c-.348281 0-.766821-.00981-1.115094-.035955v.2697776c.348273.00875.539559.1954192.539559.3956778 0 .087069-.01099.1200502-.07194.215826l-1.007183 1.4568109-1.115092-1.6726369c-.01741-.02614-.05395-.091053-.05395-.1259001 0-.1044828.183146-.2610708.557545-.2697777v-.2697776c-.304742.02614-.9461.035955-1.276962.035955zm-9.37904721 0-.16186756 1.9604017h.21582406c.12189456-1.4018098.24998404-1.690624 1.56472781-1.690624.1567231 0 .3805505.0005247.4676195.017977.1828418.034789.1978369.1234707.1978369.3237293v4.6865925c0 .2960344-.00301.4498626-.9172508.431652h-.3597122v.2697784c.3569845-.02614 1.2541404-.03605 1.6546556-.03605.400518 0 1.2976691.0098 1.6546537.03605v-.2697687h-.3597074c-.9142248 0-.8992666-.1356176-.8992666-.431652v-4.6865921c0-.1741282-.012837-.2889017.1438833-.3237293.095776-.017394.3381569-.017977.5035889-.017977 1.3147399 0 1.4428284.288824 1.5647258 1.6906241h.215827l-.1618705-1.9604021zm4.67059221 2.2931294v.2697777h.2158251c.6704278 0 .6834454.08221.6834454.3956777v4.6112821c0 .313448-.013002.413665-.6834454.413665h-.2158251v.269778h5.0179144l.377697-2.248167h-.233811c-.217672 1.340862-.4088635 1.978389-1.9064514 1.978389h-1.1510649c-.4092191 0-.4316452-.0724-.4316452-.359704v-2.3416104h.7733694c.8445686 0 .9532231.285073.9532231 1.0251594h.2158273v-2.3201057h-.2158273c0 .7487928-.1086554 1.025159-.9532231 1.025159h-.7733694v-2.107797c0-.2873275.022447-.3417261.4316452-.3417261h1.1150965c1.3321521 0 1.5692993.4623788 1.7086098 1.6726369h.215826l-.2518004-1.9424146z" fill="#808080" stroke="#808080" stroke-width=".433348"/>
</svg>

<?xml version="1.0" encoding="UTF-8" standalone="no"?>
<svg
   xmlns:osb="http://www.openswatchbook.org/uri/2009/osb"
   xmlns:dc="http://purl.org/dc/elements/1.1/"
   xmlns:cc="http://creativecommons.org/ns#"
   xmlns:rdf="http://www.w3.org/1999/02/22-rdf-syntax-ns#"
   xmlns:svg="http://www.w3.org/2000/svg"
   xmlns="http://www.w3.org/2000/svg"
   xmlns:sodipodi="http://sodipodi.sourceforge.net/DTD/sodipodi-0.dtd"
   xmlns:inkscape="http://www.inkscape.org/namespaces/inkscape"
   width="16"
   height="16"
   version="1.1"
   id="svg9"
   sodipodi:docname="texstudio-symbolic.svg"
   inkscape:version="0.92.4 (5da689c313, 2019-01-14)">
  <metadata
     id="metadata13">
    <rdf:RDF>
      <cc:Work
         rdf:about="">
        <dc:format>image/svg+xml</dc:format>
        <dc:type
           rdf:resource="http://purl.org/dc/dcmitype/StillImage" />
      </cc:Work>
    </rdf:RDF>
  </metadata>
  <sodipodi:namedview
     pagecolor="#ffffff"
     bordercolor="#666666"
     borderopacity="1"
     objecttolerance="10"
     gridtolerance="10"
     guidetolerance="10"
     inkscape:pageopacity="0"
     inkscape:pageshadow="2"
     inkscape:window-width="793"
     inkscape:window-height="480"
     id="namedview11"
     showgrid="false"
     inkscape:zoom="14.75"
     inkscape:cx="8"
     inkscape:cy="8"
     inkscape:window-x="0"
     inkscape:window-y="27"
     inkscape:window-maximized="0"
     inkscape:current-layer="svg9" />
  <title
     id="title9167">
  Gnome Symbolic Icon Theme
 </title>
  <defs
     id="defs5">
    <linearGradient
       id="linearGradient19282"
       gradientTransform="matrix(-2.7365795,0.28202934,-0.18908311,-0.99988321,239.54008,-879.45557)"
       osb:paint="solid">
      <stop
         id="stop19284"
         offset="0"
         style="stop-color:#666666" />
    </linearGradient>
  </defs>
  <path
     d="m 9.7762166,4.0300161 v 0.2697777 h 0.1798518 c 0.4788786,0 0.6439096,0.061998 0.8093426,0.3057519 l 1.600695,2.4280279 -1.438828,2.1042792 C 10.805381,9.3119907 10.547697,9.7133921 9.6682988,9.7133921 V 9.98317 L 10.639509,9.94722 c 0.322156,0 0.801647,0.0098 1.115096,0.03595 V 9.7133921 c -0.400518,-0.00875 -0.557547,-0.2569408 -0.557547,-0.4136649 0,-0.078323 0.02899,-0.1020631 0.08993,-0.1978389 l 1.24099,-1.8345113 1.366885,2.0863018 c 0.01741,0.034789 0.05396,0.063844 0.05396,0.089887 0,0.1044827 -0.201138,0.2610805 -0.575533,0.2697874 V 9.983131 c 0.304743,-0.02614 0.946097,-0.03596 1.276961,-0.03596 l 1.133078,0.03596 V 9.7133532 h -0.16187 c -0.45276,0 -0.644482,-0.053835 -0.827327,-0.3237487 L 12.959625,6.6198699 14.14666,4.8752844 C 14.338211,4.5966639 14.648703,4.3084618 15.42362,4.2997549 V 4.0299773 l -0.971209,0.035955 c -0.348281,0 -0.766821,-0.00981 -1.115094,-0.035955 v 0.2697776 c 0.348273,0.00875 0.539559,0.1954192 0.539559,0.3956778 0,0.087069 -0.01099,0.1200502 -0.07194,0.215826 L 12.797753,6.3680696 11.682661,4.6954327 c -0.01741,-0.02614 -0.05395,-0.091053 -0.05395,-0.1259001 0,-0.1044828 0.183146,-0.2610708 0.557545,-0.2697777 V 4.0299773 c -0.304742,0.02614 -0.9461,0.035955 -1.276962,0.035955 z m -9.37904721,0 -0.16186756,1.9604017 H 0.45112589 C 0.57302045,4.588608 0.70110993,4.2997938 2.0158537,4.2997938 c 0.1567231,0 0.3805505,5.247e-4 0.4676195,0.017977 0.1828418,0.034789 0.1978369,0.1234707 0.1978369,0.3237293 v 4.6865925 c 0,0.2960344 -0.00301,0.4498626 -0.9172508,0.431652 H 1.4043471 v 0.2697784 c 0.3569845,-0.02614 1.2541404,-0.03605 1.6546556,-0.03605 0.400518,0 1.2976691,0.0098 1.6546537,0.03605 V 9.7597543 H 4.353949 c -0.9142248,0 -0.8992666,-0.1356176 -0.8992666,-0.431652 V 4.6415102 c 0,-0.1741282 -0.012837,-0.2889017 0.1438833,-0.3237293 0.095776,-0.017394 0.3381569,-0.017977 0.5035889,-0.017977 1.3147399,0 1.4428284,0.288824 1.5647258,1.6906241 h 0.215827 L 5.7208369,4.0300259 Z M 5.0677616,6.3231455 v 0.2697777 h 0.2158251 c 0.6704278,0 0.6834454,0.08221 0.6834454,0.3956777 v 4.6112821 c 0,0.313448 -0.013002,0.413665 -0.6834454,0.413665 H 5.0677616 v 0.269778 h 5.0179144 l 0.377697,-2.248167 H 10.229562 C 10.01189,11.376021 9.8206985,12.013548 8.3231106,12.013548 H 7.1720457 c -0.4092191,0 -0.4316452,-0.0724 -0.4316452,-0.359704 V 9.3122336 h 0.7733694 c 0.8445686,0 0.9532231,0.285073 0.9532231,1.0251594 H 8.6828203 V 8.0172873 H 8.466993 c 0,0.7487928 -0.1086554,1.025159 -0.9532231,1.025159 H 6.7404005 v -2.107797 c 0,-0.2873275 0.022447,-0.3417261 0.4316452,-0.3417261 h 1.1150965 c 1.3321521,0 1.5692993,0.4623788 1.7086098,1.6726369 h 0.215826 L 9.9597776,6.3231455 Z"
     style="fill:#808080;stroke:#808080;stroke-width:0.43334806;fill-opacity:1;stroke-opacity:1"
     id="path7" />
</svg>
